src/assets/icons/ai-insights.svg

<svg width="24" height="24" viewBox="0 0 24 24" fill="none" xmlns="http://www.w3.org/2000/svg">
<path d="M16.5654 4.75L16.7275 4.753906C17.5336 4.797734 18.2857 5.16749 18.8398 5.77246C19.4289 6.41563 19.75 7.27461 19.75 8.1582V14.1836C19.75 15.0672 19.4289 15.9262 18.8398 16.5693C18.2487 17.2147 17.4323 17.5917 16.5654 17.5918H14.6211C14.6071 17.5918 14.5935 17.5981 14.584 17.6084L12.5342 19.8457C12.1577 20.2565 11.5103 20.2565 11.1338 19.8457L9.08398 17.6084C9.07451 17.5981 9.0609 17.5918 9.04688 17.5918H7.43457C6.56782 17.5917 5.75124 17.2155 5.16016 16.5703C4.57103 15.9271 4.25 15.0673 4.25 14.1836V8.1582C4.25001 7.27461 4.57114 6.41562 5.16016 5.77246C5.75126 5.12712 6.56768 4.750058 7.43457 4.75H16.5654Z" stroke="#314158" stroke-width="1.5" stroke-linecap="round"/>
<path d="M11.8341 7.911064C11.8925 7.762979 12.1021 7.762979 12.1605 7.911064L13.1007 10.2950C13.1185 10.3403 13.1543 10.376 13.1995 10.3939L15.5835 11.3341C15.7316 11.3925 15.7316 11.6021 15.5835 11.6605L13.1995 12.6007C13.1543 12.6185 13.1185 12.6543 13.1007 12.6995L12.1605 15.0835C12.1021 15.2316 11.8925 15.2316 11.8341 15.0835L10.8939 12.6995C10.876 12.6543 10.8403 12.6185 10.795 12.6007L8.41106 11.6605C8.26298 11.6021 8.26298 11.3925 8.41106 11.3341L10.795 10.3939C10.8403 10.376 10.876 10.3403 10.8939 10.2950L11.8341 7.911064Z" fill="#314158"/>
</svg>

<svg fill="none" viewBox="0 0 24 24"><path stroke="currentColor" stroke-linecap="round" stroke-width="1.5" d="m16.565 4.75.162.004a3.1 3.1 0 0 1 2.113 1.018c.589.644.91 1.503.91 2.386v6.026c0 .883-.321 1.742-.91 2.385a3.09 3.09 0 0 1-2.275 1.023h-1.944a.05.05 0 0 0-.037.016l-2.05 2.238a.95.95 0 0 1-1.4 0l-2.05-2.238a.05.05 0 0 0-.037-.016H7.435A3.09 3.09 0 0 1 5.16 16.57a3.54 3.54 0 0 1-.91-2.386V8.158c0-.883.321-1.742.91-2.386A3.09 3.09 0 0 1 7.435 4.75z"/><path fill="currentColor" d="M11.834 7.911a.175.175 0 0 1 .327 0l.94 2.384a.18.18 0 0 0 .098.099l2.385.94a.175.175 0 0 1 0 .327l-2.384.94a.18.18 0 0 0-.1.098l-.94 2.385a.175.175 0 0 1-.326 0l-.94-2.384a.18.18 0 0 0-.099-.1l-2.384-.94a.175.175 0 0 1 0-.326l2.384-.94a.18.18 0 0 0 .099-.099z"/></svg>
